X:1
T:Graz, 10.10.10.11 D
T:Graz, 10.10.10.11 D
T:Ira David Sankey, 1902
T:Public Domain Courtesy of the Cyber Hymnal™
C:Ira David Sankey, 1902
Z:Public Domain
Z:Courtesy of the Cyber Hymnal™
%%score ( 1 2 ) ( 3 4 )
L:1/8
Q:1/4=95
M:4/4
K:G
V:1 treble 
V:2 treble 
V:3 bass 
V:4 bass 
V:1
 [B,B]2 [CG]>[CA] [DB]2 [B,D]>[B,^D] | [CE]2 [EG]>[_EA] [DB]4 | [Gd]2 [G^c]>[Gd] | [GB]2 [DA][DG] | %4
 [DG]2 [^CF]>[CG] ([DA]2 [=C^A]2) | [B,B]2 [CG]>[CA] [DB]2 [B,D]>[B,^D] | [CE]2 [EG]>[_EA] [DB]4 | %7
 [Cc]2 [DB][FA] [Gd][GB]G[GA] | [GB]2 [EG]>[FA] G4 | [FA]2 [DF]>[EG] [FA] [Fd]2 [Fd] | %10
 [E^c]2 [DB]>[Ec] [Fd]4 | [FA]2 [DF]>[EG] [FA] [Fd]2 [Fd] | [E^c]2 [Fd]>[Ge] ([Fd]2 [A=c]2) | %13
 [GB]2 [EG]>[_EA] [DB]2 [B,D]>[B,^D] | [CE]2 [EG]>[_EA] [DB]4 | [Cc]2 [DB][FA] [Gd][GB]G[GA] | %16
 [GB]2 [EG]>[FA] G4 |] %17
V:2
 x8 | x8 | x4 | x4 | x8 | x8 | x8 | x6 G x | x4 G4 | x8 | x8 | x8 | x8 | x8 | x8 | x6 G x | %16
 x4 G4 |] %17
V:3
 [G,,D,]2 [G,,E,]>[G,,_E,] [G,,D,]2 [G,,G,]>[G,,G,] | [C,G,]2 [C,G,]>[C,G,] [G,,G,]4 | %2
 [G,B,]2 [G,^A,]>[G,B,] | [G,D]2 [G,B,][G,B,] | [E,B,]2 [A,,A,]>[A,,G,] [D,F,]4 | %5
 [G,,G,]2 [G,,E,]>[G,,_E,] [G,,D,]2 [G,,G,]>[G,,G,] | [C,G,]2 [C,G,]>[C,G,] G,4 | %7
 [E,G,]2 [D,G,][C,D] [B,,D][G,,D][E,B,][C,E] | [D,D]2 [D,B,]>[D,C] [G,B,]4 | %9
 [D,D]2 [D,A,]>[D,A,] [D,D] [D,A,]2 [D,A,] | [A,,A,]2 [A,,A,]>[A,,A,] [D,A,]4 | %11
 [D,D]2 [D,A,]>[D,A,] [D,D] [D,A,]2 [D,A,] | [A,,A,]2 [A,,A,]>[A,,A,] ([D,A,]2 [F,D]2) | %13
 [G,D]2 [G,C]>[G,C] [G,B,]2 [G,,G,]>[G,,G,] | [C,G,]2 [C,G,]>[C,G,] G,4 | %15
 [E,G,]2 [D,G,][C,D] [B,,D][G,,D][E,B,][C,E] | [D,D]2 [D,B,]>[D,C] [G,,B,]4 |] %17
V:4
 x8 | x8 | x4 | x4 | x8 | x8 | x4 G,4 | x8 | x8 | x8 | x8 | x8 | x8 | x8 | x4 (G,2 =F,2) | x8 | %16
 x8 |] %17

